X: 1
T: Tobin's Favourite
R: jig
M: 6/8
L: 1/8
U: Modified by Megan Ward
K: Dmaj
|DFA dcd|ecA cde|~f3 gfg|ecA GFE|
DFA dcd|ecA cde|fef gec|edc d3:||
|:dfa agf|efg efg|~f3 gfg|ecA GFE|
DFA dcd|ecA cde|fef gec|edc d3:||
